img/icon/left.svg

<svg width="15" height="14" viewBox="0 0 15 14" fill="none" xmlns="http://www.w3.org/2000/svg">
<path d="M8.31689 12.9375C8.62939 12.625 8.59814 12.1562 8.31689 11.8438L4.53564 8.25H13.5356C13.9419 8.25 14.2856 7.9375 14.2856 7.5V6.5C14.2856 6.09375 13.9419 5.75 13.5356 5.75H4.53564L8.31689 2.1875C8.59814 1.875 8.62939 1.40625 8.31689 1.09375L7.62939 0.40625C7.34814 0.125 6.84814 0.125 6.56689 0.40625L0.504395 6.5C0.191895 6.78125 0.191895 7.25 0.504395 7.53125L6.56689 13.625C6.84814 13.9062 7.31689 13.9062 7.62939 13.625L8.31689 12.9375Z" fill="#959EAD"/>
</svg>

<svg xmlns="http://www.w3.org/2000/svg" fill="none" viewBox="0 0 15 14"><path fill="#959EAD" d="M8.317 12.938c.312-.313.281-.782 0-1.094L4.536 8.25h9a.74.74 0 0 0 .75-.75v-1a.76.76 0 0 0-.75-.75h-9l3.78-3.563c.282-.312.313-.78 0-1.093L7.63.406a.774.774 0 0 0-1.062 0L.504 6.5a.684.684 0 0 0 0 1.031l6.063 6.094c.281.281.75.281 1.062 0l.688-.688z"/></svg>
